X: 828
T: The Humors of Ballingarry
B:O'Neill's 828
Z:Transcribed by Dan G. Petersen, dangp@post6.tele.dk
M:6/8
L:1/8
K:G
A|BGG dGG|cAG FGA|BGG BdB|cAF G2A|
BGG dGG|cAG FGA|def gdB|cAF G2:|
B|def ~g3|edc BAG|eaa aga|bge edB|
def gfg|edc BAB|GBd gdB|cAF G2:|


